!!!COM: arctic-monkeys
!!!OTL: mardy-bum
!!!RNB: hooktheoryid: yZOxVYlNgdq
**kern	**text
*clefG2	*
*k[f#c#]	*
*M4/4	*
=1	=1
8f#	D
8r	.
8f#	D
16e	.
8f#	D
16e	D
8d	.
16d	D
16d	.
8e	.
=2	=2
8f#	F#
8r	.
8f#	F#
16e	.
8f#	F#
16e	F#
8d	.
16d	F#
16d	.
8e	.
=3	=3
8c#	G
8d	.
8d	G
16c#	.
[16BL	.
[4B]JL	F#m
8.B]J]J	F#m
16B	.
=4	=4
[4EL	Em
[8.E]JL	Em
16E]J]J	Em
16d	.
16d	Em
16d	.
[16dL	.
16d]J	A
[16eL	.
8e]J	A
=5	=5
8f#	D
8r	.
8f#	D
16e	.
8f#	D
16e	D
8d	.
16d	D
16d	.
8e	.
=6	=6
8f#	F#
8f#	.
8f#	F#
16e	.
8f#	F#
16e	F#
8d	.
16d	F#
16d	.
8e	.
=7	=7
8c#	G
8d	.
8d	G
16c#	.
[16BL	.
[4B]JL	F#m
8B]J]J	F#m
8c#	.
=8	=8
[4dL	Em
[8.d]JL	Em
16d]J]J	Em
16d	.
16d	Em
16d	.
[16dL	.
16d]J	A
16d	.
8e	A
=9	=9
1r	.
*-	*-